Papirus-nordic/22x22/places/folder-nordic-meocloud.svg

<svg xmlns="http://www.w3.org/2000/svg" width="22" height="22" version="1">
 <rect style="opacity:0.2" width="20" height="12" x="1" y="8.5" rx="1" ry="1"/>
 <path style="fill:#6c9b9a" d="M 1,16 C 1,16.554 1.446,17 2,17 H 20 C 20.554,17 21,16.554 21,16 V 5 C 21,4.446 20.554,4 20,4 H 11 C 9.5,4 9,2 7.5,2 H 2 C 1.446,2 1,2.446 1,3"/>
 <rect style="opacity:0.2" width="20" height="12" x="1" y="7.5" rx="1" ry="1"/>
 <rect style="fill:#eceff4" width="16" height="8" x="3" y="6" rx="1" ry="1"/>
 <rect style="fill:#82abaa" width="20" height="12" x="1" y="8" rx="1" ry="1"/>
 <path style="opacity:0.1;fill:#ffffff" d="M 2,2 C 1.446,2 1,2.446 1,3 V 3.5 C 1,2.946 1.446,2.5 2,2.5 H 7.5 C 9,2.5 9.5,4.5 11,4.5 H 20 C 20.554,4.5 21,4.946 21,5.5 V 5 C 21,4.446 20.554,4 20,4 H 11 C 9.5,4 9,2 7.5,2 Z"/>
 <path style="fill:#4e6766" d="M 11.801,11 C 10.999,11 10.264,11.509 9.9003,12.312 9.7414,12.239 9.572,12.199 9.4003,12.199 8.7336,12.199 8.1685,12.756 8.08,13.5 7.4336,13.75 7.001,14.431 6.9999,15.199 6.9999,16.193 7.7159,17 8.5995,17 H 13.4 C 14.284,17 15,16.193 15,15.199 14.999,14.435 14.571,13.757 13.93,13.504 13.932,13.47 13.932,13.435 13.934,13.4 13.934,12.075 12.979,11 11.801,11 Z M 11.801,12 C 12.37,12 12.933,12.555 12.934,13.398 V 13.4 C 12.933,13.415 12.932,13.433 12.932,13.441 A 1.0001,1.0001 0 0 0 13.562,14.434 C 13.775,14.517 13.999,14.811 14,15.199 14,15.713 13.676,16 13.4,16 H 8.5995 C 8.3243,16 8.0009,15.713 7.9999,15.201 V 15.199 C 8.0013,14.807 8.227,14.514 8.4413,14.432 A 1.0001,1.0001 0 0 0 9.0741,13.617 C 9.1106,13.31 9.2892,13.199 9.4003,13.199 9.4229,13.199 9.4498,13.206 9.4823,13.221 A 1.0001,1.0001 0 0 0 10.812,12.725 C 11.033,12.237 11.421,12 11.801,12 Z"/>
</svg>

<svg xmlns="http://www.w3.org/2000/svg" width="22" height="22" version="1">
 <rect width="20" height="12" x="1" y="8.5" rx="1" ry="1" opacity=".2"/>
 <path d="M1 16c0 .554.446 1 1 1h18c.554 0 1-.446 1-1V5c0-.554-.446-1-1-1H10V3c0-.554-.446-1-1-1H2c-.554 0-1 .446-1 1" fill="#6c9b9a"/>
 <rect width="20" height="12" x="1" y="7.5" rx="1" ry="1" opacity=".2"/>
 <rect width="16" height="8" x="3" y="6" rx="1" ry="1" fill="#e4e4e4"/>
 <rect width="20" height="12" x="1" y="8" rx="1" ry="1" fill="#82abaa"/>
 <path d="M2 2c-.554 0-1 .446-1 1v.5c0-.554.446-1 1-1h7c.554 0 1 .446 1 1V3c0-.554-.446-1-1-1zm8 2v.5h10c.554 0 1 .446 1 1V5c0-.554-.446-1-1-1z" opacity=".1" fill="#fff"/>
 <path d="M11.801 11c-.802 0-1.537.509-1.9 1.312a1.197 1.197 0 0 0-.5-.113c-.667 0-1.232.557-1.321 1.301-.646.25-1.079.931-1.08 1.699C7 16.193 7.716 17 8.6 17h4.8c.884 0 1.6-.807 1.6-1.801-.001-.764-.429-1.442-1.07-1.695l.004-.104c0-1.325-.955-2.4-2.133-2.4zm0 1c.569 0 1.132.555 1.133 1.398v.002a.84.84 0 0 0-.002.041 1 1 0 0 0 .63.993c.213.083.437.377.438.765 0 .514-.324.801-.6.801H8.6c-.276 0-.6-.287-.6-.799v-.002c.001-.392.227-.685.441-.767a1 1 0 0 0 .633-.815c.037-.307.215-.418.326-.418.023 0 .05.007.082.022a1 1 0 0 0 1.33-.496c.221-.488.609-.725.989-.725z" fill="#4e6766"/>
</svg>
